public/img/Mypage/Vector7.svg

<svg width="13" height="13" viewBox="0 0 13 13" fill="none" xmlns="http://www.w3.org/2000/svg">
<path fill-rule="evenodd" clip-rule="evenodd" d="M2.83267 0.810547C2.33522 0.810547 1.85815 0.998276 1.50639 1.33244C1.15464 1.6666 0.957031 2.11981 0.957031 2.59239V10.9076C0.957031 11.3802 1.15464 11.8334 1.50639 12.1676C1.85815 12.5018 2.33522 12.6895 2.83267 12.6895H6.58396C7.08141 12.6895 7.55849 12.5018 7.91024 12.1676C8.26199 11.8334 8.4596 11.3802 8.4596 10.9076V2.59239C8.4596 2.11981 8.26199 1.6666 7.91024 1.33244C7.55849 0.998276 7.08141 0.810547 6.58396 0.810547H2.83267ZM9.268 3.95431C9.38525 3.84296 9.54425 3.78041 9.71003 3.78041C9.87582 3.78041 10.0348 3.84296 10.1521 3.95431L12.6529 6.3301C12.7701 6.44148 12.836 6.59252 12.836 6.75002C12.836 6.90751 12.7701 7.05855 12.6529 7.16994L10.1521 9.54572C10.0341 9.65392 9.87621 9.71378 9.71228 9.71243C9.54835 9.71108 9.39154 9.64861 9.27562 9.53849C9.1597 9.42837 9.09395 9.2794 9.09252 9.12367C9.0911 8.96793 9.15412 8.8179 9.268 8.70588L10.7016 7.34396H5.33353C5.16771 7.34396 5.00869 7.28139 4.89144 7.17C4.77419 7.05861 4.70832 6.90754 4.70832 6.75002C4.70832 6.59249 4.77419 6.44142 4.89144 6.33003C5.00869 6.21865 5.16771 6.15607 5.33353 6.15607H10.7016L9.268 4.79415C9.15079 4.68277 9.08495 4.53172 9.08495 4.37423C9.08495 4.21673 9.15079 4.06569 9.268 3.95431Z" fill="#3C332B"/>
</svg>

<svg xmlns="http://www.w3.org/2000/svg" width="13" height="13" fill="none"><path fill="#3C332B" fill-rule="evenodd" d="M2.833.81c-.498 0-.975.188-1.327.522-.351.335-.549.788-.549 1.26v8.316c0 .472.198.925.55 1.26.351.334.828.522 1.326.522h3.751c.497 0 .974-.188 1.326-.522.352-.335.55-.788.55-1.26V2.592c0-.472-.198-.925-.55-1.26A1.93 1.93 0 0 0 6.584.811zm6.435 3.144a.64.64 0 0 1 .442-.174c.166 0 .325.063.442.174l2.5 2.376a.58.58 0 0 1 .184.42.58.58 0 0 1-.183.42l-2.5 2.376a.64.64 0 0 1-.44.166.64.64 0 0 1-.437-.174.58.58 0 0 1-.183-.414.58.58 0 0 1 .175-.418l1.434-1.362H5.334a.64.64 0 0 1-.443-.174.58.58 0 0 1-.183-.42.58.58 0 0 1 .183-.42.64.64 0 0 1 .443-.174h5.368L9.268 4.794a.58.58 0 0 1-.183-.42.58.58 0 0 1 .183-.42" clip-rule="evenodd"/></svg>
